app/assets/images/badges/profil-3.svg

<svg width="48" height="48" viewBox="0 0 48 48" fill="none" xmlns="http://www.w3.org/2000/svg">
<path d="M17.2089 10.4C17.4809 10.4 17.7395 10.4827 17.9849 10.648C18.2302 10.808 18.4275 11.0267 18.5769 11.304C18.7262 11.576 18.8009 11.8747 18.8009 12.2C18.8009 12.52 18.7262 12.8187 18.5769 13.096C18.4275 13.3733 18.2302 13.5947 17.9849 13.76C17.7395 13.92 17.4809 14 17.2089 14H15.8169V15.512C15.8169 15.656 15.7742 15.7733 15.6889 15.864C15.6035 15.9547 15.4915 16 15.3529 16C15.2195 16 15.1102 15.9547 15.0249 15.864C14.9395 15.768 14.8969 15.6507 14.8969 15.512V10.888C14.8969 10.7493 14.9422 10.6347 15.0329 10.544C15.1289 10.448 15.2462 10.4 15.3849 10.4H17.2089ZM17.2089 13.088C17.3102 13.088 17.4089 13.0453 17.5049 12.96C17.6062 12.8747 17.6862 12.7653 17.7449 12.632C17.8089 12.4933 17.8409 12.3493 17.8409 12.2C17.8409 12.0507 17.8089 11.9093 17.7449 11.776C17.6862 11.6373 17.6062 11.528 17.5049 11.448C17.4089 11.3627 17.3102 11.32 17.2089 11.32H15.8169V13.088H17.2089ZM21.8612 11.64C22.0212 11.64 22.1545 11.6853 22.2612 11.776C22.3732 11.8667 22.4292 11.9733 22.4292 12.096C22.4292 12.2613 22.3865 12.3867 22.3012 12.472C22.2159 12.552 22.1145 12.592 21.9972 12.592C21.9172 12.592 21.8265 12.5733 21.7252 12.536C21.7092 12.5307 21.6719 12.52 21.6132 12.504C21.5599 12.488 21.5012 12.48 21.4372 12.48C21.2985 12.48 21.1652 12.5227 21.0372 12.608C20.9092 12.6933 20.8025 12.824 20.7172 13C20.6372 13.1707 20.5972 13.376 20.5972 13.616V15.512C20.5972 15.6507 20.5519 15.768 20.4612 15.864C20.3705 15.9547 20.2559 16 20.1172 16C19.9785 16 19.8639 15.9547 19.7732 15.864C19.6825 15.768 19.6372 15.6507 19.6372 15.512V12.208C19.6372 12.0693 19.6825 11.9547 19.7732 11.864C19.8639 11.768 19.9785 11.72 20.1172 11.72C20.2559 11.72 20.3705 11.768 20.4612 11.864C20.5519 11.9547 20.5972 12.0693 20.5972 12.208V12.312C20.7199 12.0933 20.8959 11.928 21.1252 11.816C21.3545 11.6987 21.5999 11.64 21.8612 11.64ZM27.0383 13.864C27.0383 14.2907 26.9423 14.6747 26.7503 15.016C26.5583 15.352 26.2943 15.6133 25.9583 15.8C25.6276 15.9867 25.2623 16.08 24.8623 16.08C24.4569 16.08 24.0889 15.9867 23.7583 15.8C23.4276 15.6133 23.1663 15.352 22.9743 15.016C22.7823 14.6747 22.6863 14.2907 22.6863 13.864C22.6863 13.4373 22.7823 13.056 22.9743 12.72C23.1663 12.3787 23.4276 12.1147 23.7583 11.928C24.0889 11.736 24.4569 11.64 24.8623 11.64C25.2623 11.64 25.6276 11.736 25.9583 11.928C26.2943 12.1147 26.5583 12.3787 26.7503 12.72C26.9423 13.056 27.0383 13.4373 27.0383 13.864ZM26.0783 13.864C26.0783 13.6027 26.0223 13.3707 25.9103 13.168C25.8036 12.96 25.6569 12.8 25.4703 12.688C25.2889 12.576 25.0863 12.52 24.8623 12.52C24.6383 12.52 24.4329 12.576 24.2463 12.688C24.0649 12.8 23.9183 12.96 23.8063 13.168C23.6996 13.3707 23.6463 13.6027 23.6463 13.864C23.6463 14.1253 23.6996 14.3573 23.8063 14.56C23.9183 14.7627 24.0649 14.92 24.2463 15.032C24.4329 15.144 24.6383 15.2 24.8623 15.2C25.0863 15.2 25.2889 15.144 25.4703 15.032C25.6569 14.92 25.8036 14.7627 25.9103 14.56C26.0223 14.3573 26.0783 14.1253 26.0783 13.864ZM29.8963 10.928C29.715 10.928 29.587 10.9813 29.5123 11.088C29.4376 11.1893 29.4003 11.3013 29.4003 11.424V11.8H30.1283C30.2563 11.8 30.363 11.8427 30.4483 11.928C30.5336 12.008 30.5763 12.112 30.5763 12.24C30.5763 12.368 30.5336 12.4747 30.4483 12.56C30.363 12.64 30.2563 12.68 30.1283 12.68H29.4003V15.512C29.4003 15.6507 29.355 15.768 29.2643 15.864C29.1736 15.9547 29.059 16 28.9203 16C28.7816 16 28.667 15.9547 28.5763 15.864C28.4856 15.768 28.4403 15.6507 28.4403 15.512V12.68H28.0083C27.8803 12.68 27.7736 12.64 27.6883 12.56C27.603 12.4747 27.5603 12.368 27.5603 12.24C27.5603 12.112 27.603 12.008 27.6883 11.928C27.7736 11.8427 27.8803 11.8 28.0083 11.8H28.4403V11.432C28.4403 11.032 28.5763 10.7067 28.8483 10.456C29.1256 10.2053 29.523 10.08 30.0403 10.08C30.2376 10.08 30.4083 10.12 30.5523 10.2C30.7016 10.28 30.7763 10.4027 30.7763 10.568C30.7763 10.696 30.739 10.8 30.6643 10.88C30.5896 10.96 30.499 11 30.3923 11C30.3656 11 30.3363 10.9973 30.3043 10.992C30.2776 10.9867 30.2483 10.9813 30.2163 10.976C30.0883 10.944 29.9816 10.928 29.8963 10.928ZM32.0803 15.512C32.0803 15.6507 32.035 15.768 31.9443 15.864C31.8536 15.9547 31.739 16 31.6003 16C31.4616 16 31.347 15.9547 31.2563 15.864C31.1656 15.768 31.1203 15.6507 31.1203 15.512V12.208C31.1203 12.0693 31.1656 11.9547 31.2563 11.864C31.347 11.768 31.4616 11.72 31.6003 11.72C31.739 11.72 31.8536 11.768 31.9443 11.864C32.035 11.9547 32.0803 12.0693 32.0803 12.208V15.512ZM31.5923 11.2C31.411 11.2 31.283 11.1707 31.2083 11.112C31.1336 11.0533 31.0963 10.9493 31.0963 10.8V10.648C31.0963 10.4987 31.1363 10.3947 31.2163 10.336C31.2963 10.2773 31.4243 10.248 31.6003 10.248C31.787 10.248 31.9176 10.2773 31.9923 10.336C32.067 10.3947 32.1043 10.4987 32.1043 10.648V10.8C32.1043 10.9547 32.0643 11.0613 31.9843 11.12C31.9096 11.1733 31.779 11.2 31.5923 11.2ZM34.1069 15.512C34.1069 15.6507 34.0589 15.768 33.9629 15.864C33.8722 15.9547 33.7575 16 33.6189 16C33.4855 16 33.3735 15.9547 33.2829 15.864C33.1922 15.768 33.1469 15.6507 33.1469 15.512V10.568C33.1469 10.4293 33.1922 10.3147 33.2829 10.224C33.3789 10.128 33.4962 10.08 33.6349 10.08C33.7682 10.08 33.8802 10.128 33.9709 10.224C34.0615 10.3147 34.1069 10.4293 34.1069 10.568V15.512Z" fill="#1E416A"/>
<circle cx="24" cy="24" r="22.5" stroke="#1E416A" stroke-width="3"/>
<path d="M24.7302 27.676C25.5002 27.704 26.1792 27.928 26.7672 28.348C27.3692 28.768 27.8312 29.321 28.1532 30.007C28.4752 30.679 28.6362 31.4 28.6362 32.17C28.6362 33.192 28.4052 34.088 27.9432 34.858C27.4812 35.614 26.8302 36.195 25.9902 36.601C25.1502 37.007 24.1702 37.21 23.0502 37.21C22.5462 37.21 22.0422 37.147 21.5382 37.021C21.0342 36.895 20.5932 36.727 20.2152 36.517C19.6972 36.237 19.4382 35.859 19.4382 35.383C19.4382 35.047 19.5572 34.739 19.7952 34.459C20.0332 34.179 20.3202 34.039 20.6562 34.039C20.9362 34.039 21.2372 34.144 21.5592 34.354C22.1612 34.816 22.8262 35.047 23.5542 35.047C23.9882 35.047 24.4012 34.942 24.7932 34.732C25.1852 34.508 25.5002 34.193 25.7382 33.787C25.9902 33.367 26.1162 32.891 26.1162 32.359C26.1162 31.603 25.8852 31.015 25.4232 30.595C24.9752 30.175 24.4292 29.965 23.7852 29.965C23.5052 29.965 23.2602 29.993 23.0502 30.049C22.8402 30.105 22.7142 30.14 22.6722 30.154C22.3082 30.266 22.0072 30.322 21.7692 30.322C21.4612 30.322 21.2162 30.217 21.0342 30.007C20.8522 29.783 20.7612 29.51 20.7612 29.188C20.7612 28.992 20.7962 28.817 20.8662 28.663C20.9362 28.509 21.0552 28.341 21.2232 28.159L24.4782 24.61H20.3202C19.9842 24.61 19.7042 24.498 19.4802 24.274C19.2562 24.05 19.1442 23.77 19.1442 23.434C19.1442 23.112 19.2562 22.846 19.4802 22.636C19.7042 22.412 19.9842 22.3 20.3202 22.3H26.7462C27.1662 22.3 27.4882 22.419 27.7122 22.657C27.9362 22.881 28.0482 23.182 28.0482 23.56C28.0482 23.896 27.8802 24.232 27.5442 24.568L24.7302 27.676Z" fill="#6E84FE"/>
</svg>

<svg width="48" height="48" fill="none" xmlns="http://www.w3.org/2000/svg"><path d="M17.209 10.4c.272 0 .53.083.776.248.245.16.442.379.592.656.15.272.224.57.224.896 0 .32-.075.619-.224.896-.15.277-.347.499-.592.664-.245.16-.504.24-.776.24h-1.392v1.512a.493.493 0 01-.128.352.44.44 0 01-.336.136.43.43 0 01-.328-.136.51.51 0 01-.128-.352v-4.624a.479.479 0 01.488-.488h1.824zm0 2.688c.101 0 .2-.043.296-.128a.89.89 0 00.24-.328 1.02 1.02 0 00.096-.432c0-.15-.032-.29-.096-.424a.81.81 0 00-.24-.328.444.444 0 00-.296-.128h-1.392v1.768h1.392zm4.652-1.448c.16 0 .293.045.4.136.112.09.168.197.168.32 0 .165-.042.29-.128.376a.43.43 0 01-.304.12.799.799 0 01-.272-.056 2.884 2.884 0 00-.112-.032.61.61 0 00-.176-.024.711.711 0 00-.4.128.957.957 0 00-.32.392c-.08.17-.12.376-.12.616v1.896a.493.493 0 01-.136.352.466.466 0 01-.344.136.466.466 0 01-.344-.136.493.493 0 01-.136-.352v-3.304c0-.139.046-.253.136-.344a.453.453 0 01.344-.144c.139 0 .253.048.344.144.09.09.136.205.136.344v.104c.123-.219.299-.384.528-.496.23-.117.475-.176.736-.176zm5.177 2.224c0 .427-.096.81-.288 1.152a2.035 2.035 0 01-.792.784 2.19 2.19 0 01-1.096.28c-.405 0-.773-.093-1.104-.28a2.05 2.05 0 01-.784-.784 2.308 2.308 0 01-.288-1.152c0-.427.096-.808.288-1.144.192-.341.454-.605.784-.792.33-.192.699-.288 1.104-.288.4 0 .766.096 1.096.288.336.187.6.45.792.792.192.336.288.717.288 1.144zm-.96 0c0-.261-.056-.493-.168-.696a1.165 1.165 0 00-1.048-.648c-.224 0-.43.056-.616.168a1.239 1.239 0 00-.44.48c-.106.203-.16.435-.16.696 0 .261.054.493.16.696.112.203.259.36.44.472.187.112.392.168.616.168a1.176 1.176 0 001.048-.64c.112-.203.168-.435.168-.696zm3.818-2.936c-.181 0-.309.053-.384.16a.553.553 0 00-.112.336v.376h.728c.128 0 .235.043.32.128.086.08.128.184.128.312a.434.434 0 01-.128.32.45.45 0 01-.32.12H29.4v2.832a.493.493 0 01-.136.352.466.466 0 01-.344.136.466.466 0 01-.344-.136.493.493 0 01-.136-.352V12.68h-.432a.45.45 0 01-.32-.12.434.434 0 01-.128-.32c0-.128.043-.232.128-.312a.434.434 0 01.32-.128h.432v-.368c0-.4.136-.725.408-.976.278-.25.675-.376 1.192-.376.198 0 .368.04.512.12.15.08.224.203.224.368a.439.439 0 01-.112.312.358.358 0 01-.272.12.542.542 0 01-.088-.008 2.807 2.807 0 00-.088-.016 1.367 1.367 0 00-.32-.048zm2.184 4.584a.493.493 0 01-.136.352.466.466 0 01-.344.136.466.466 0 01-.344-.136.493.493 0 01-.136-.352v-3.304c0-.139.046-.253.136-.344a.453.453 0 01.344-.144c.139 0 .254.048.344.144.091.09.136.205.136.344v3.304zm-.488-4.312c-.181 0-.309-.03-.384-.088-.074-.059-.112-.163-.112-.312v-.152c0-.15.04-.253.12-.312.08-.059.208-.088.384-.088.187 0 .318.03.392.088.075.059.112.163.112.312v.152c0 .155-.04.261-.12.32-.074.053-.205.08-.392.08zm2.515 4.312a.479.479 0 01-.488.488.456.456 0 01-.336-.136.493.493 0 01-.136-.352v-4.944a.479.479 0 01.488-.488c.133 0 .245.048.336.144.09.09.136.205.136.344v4.944z" fill="#1E416A"/><circle cx="24" cy="24" r="22.5" stroke="#1E416A" stroke-width="3"/><path d="M24.73 27.676c.77.028 1.45.252 2.037.672.602.42 1.064.973 1.386 1.659.322.672.483 1.393.483 2.163 0 1.022-.23 1.918-.693 2.688-.462.756-1.113 1.337-1.953 1.743-.84.406-1.82.609-2.94.609a6.213 6.213 0 01-1.512-.189 5.428 5.428 0 01-1.323-.504c-.518-.28-.777-.658-.777-1.134 0-.336.12-.644.357-.924.238-.28.525-.42.861-.42.28 0 .581.105.903.315a3.201 3.201 0 001.995.693c.434 0 .847-.105 1.24-.315a2.55 2.55 0 00.944-.945c.252-.42.378-.896.378-1.428 0-.756-.23-1.344-.693-1.764-.448-.42-.994-.63-1.638-.63-.28 0-.525.028-.735.084-.21.056-.336.091-.378.105-.364.112-.665.168-.903.168-.308 0-.553-.105-.735-.315a1.257 1.257 0 01-.273-.819c0-.196.035-.371.105-.525.07-.154.19-.322.357-.504l3.255-3.549H20.32a1.14 1.14 0 01-.84-.336 1.14 1.14 0 01-.336-.84c0-.322.112-.588.336-.798a1.14 1.14 0 01.84-.336h6.426c.42 0 .742.119.966.357.224.224.336.525.336.903 0 .336-.168.672-.504 1.008l-2.814 3.108z" fill="#6E84FE"/></svg>
